X:2530
T:Polska (allmän)
T:Svenska Folkdansar H4 nr 8
B:Traditioner av Svenska Folkdansar Häfte 4, nr 8
B:Jämför [[http://www.smus.se/earkiv/fmk/browselarge.php?lang=sw&katalogid=Ma+13a&bildnr=00048|SMUS - katalog Ma13a bild 48]] nr 162 efter [[Personer/Johan Eric Blomgren]]
B:Jämför [[http://www.smus.se/earkiv/fmk/browselarge.php?lang=sw&katalogid=Ma+13c&bildnr=00036|SMUS - katalog Ma13c bild 36]] nr 30 efter [[Personer/Johan Eric Blomgren]]
B:Jämför [[http://www.smus.se/earkiv/fmk/browselarge.php?lang=sw&katalogid=MMD+65&bildnr=00026|SMUS - katalog MMD65 bild 26]] nr 49
B:Jämför [[http://www.smus.se/earkiv/fmk/browselarge.php?lang=sw&katalogid=Ma+8&bildnr=00011|SMUS - katalog Ma18 bild 11]] nr 23
B:Jämför [[http://www.samlingarna.sormlandsspel.se/?page_id=374|Alfred Anderssons notbok]] (pdf) nr 259 sid 221
B:Jämför EÖ, nr 822 efter [[Personer/Engebret Engen]] från [[Platser/Norge]]
N:Se även [[Musik/2252|+]], [[Musik/2619|+]], [[Musik/2562|+]] och [[Musik/2733|+]]
R:Polska
Z:Nils L
U:w=wedge
U:t=tenuto
M:3/4
L:1/8
K:Dm
(a>f) dd ^cc | dd ee ff | a>f (dd ^cc) | (A=B/^c/) d2 D2 ::
(f>g) aa ff | (g>a) b2 g2 | (e>f) gg ee | (f>g) a2 f2 !D.C.! :|
(:musicend:)
(:music:)
